packages/core/src/svg/ui/microphone.svg

<svg role="img" xmlns="http://www.w3.org/2000/svg" viewBox="0 0 24 24">
  <g fill="none" fill-rule="evenodd">
    <rect width="24" height="24"/>
    <path fill="currentColor" d="M7,11.5 C7,14.2614237 9.23857625,16.5 12,16.5 C14.6887547,16.5 16.8818181,14.3776933 16.9953805,11.7168896 L17,11.5 L19,11.5 C19,15.0261219 16.3928118,17.9433024 13.0010101,18.4289666 L13,21 L16,21 L16,23 L8,23 L8,21 L11,21 L11,18.42911 C7.68517863,17.9549591 5.1195246,15.1584625 5.00405902,11.7406498 L5,11.5 L7,11.5 Z M12,1 C13.6568542,1 15,2.34314575 15,4 L15,11.5 C15,13.1568542 13.6568542,14.5 12,14.5 C10.3431458,14.5 9,13.1568542 9,11.5 L9,4 C9,2.34314575 10.3431458,1 12,1 Z"/>
  </g>
</svg>

<svg viewBox="0 0 24 24" role="img" xmlns="http://www.w3.org/2000/svg"><g fill="none" fill-rule="evenodd"><path d="M0 0h24v24H0z"/><path d="M8 23v-2h3v-2.57a7.002 7.002 0 01-5.996-6.69L5 11.5h2a5 5 0 009.995.217L17 11.5h2a7.002 7.002 0 01-5.999 6.929L13 21h3v2H8zm4-22a4.004 4.004 0 013.978 3.59l.016.205L16 5v6a4 4 0 01-4 4 4.004 4.004 0 01-3.978-3.59l-.016-.205L8 11V4.971l.007-.205A4 4 0 0112 1zm0 2a1.999 1.999 0 00-1.98 1.7l-.015.153L10 5v5.971l.003.147a2 2 0 003.992.031L14 11V5.029l-.003-.147A2 2 0 0012 3z" fill="currentColor"/></g></svg>
